img/mainHeaderButtonLedies.svg

<svg id="グループ_343" data-name="グループ 343" xmlns="http://www.w3.org/2000/svg" xmlns:xlink="http://www.w3.org/1999/xlink" width="375" height="108" viewBox="0 0 375 108">
  <defs>
    <clipPath id="clip-path">
      <rect id="長方形_28" data-name="長方形 28" width="375" height="108" fill="none"/>
    </clipPath>
  </defs>
  <rect id="長方形_26" data-name="長方形 26" width="375" height="108" fill="#d65323"/>
  <path id="パス_314" data-name="パス 314" d="M363.828,96.828H11.172V11.172H363.828ZM365,10H10V98H365Z" fill="#fffffe"/>
  <path id="パス_315" data-name="パス 315" d="M103.044,81.45V30.192h9.365v44.8h12.4V81.45Z" fill="#fff"/>
  <path id="パス_316" data-name="パス 316" d="M131.988,81.45l10.251-51.258h10L162.489,81.45H153.82l-2.025-11.834h-8.923L140.783,81.45Zm11.833-17.782h6.961L147.3,42.152Z" fill="#fff"/>
  <g id="グループ_62" data-name="グループ 62">
    <g id="グループ_61" data-name="グループ 61" clip-path="url(#clip-path)">
      <path id="パス_317" data-name="パス 317" d="M170.83,81.45V30.192h12.086q6.266,0,9.777,1.709a9.966,9.966,0,0,1,5,5.252,23.41,23.41,0,0,1,1.486,8.986V64.87a25.059,25.059,0,0,1-1.486,9.271,10.367,10.367,0,0,1-4.936,5.505q-3.45,1.8-9.461,1.8Zm9.365-6.518h2.848q3.228,0,4.619-1.139a5.035,5.035,0,0,0,1.709-3.322,38.129,38.129,0,0,0,.316-5.348V45.506a22.8,22.8,0,0,0-.443-5,4.278,4.278,0,0,0-1.835-2.784,8.659,8.659,0,0,0-4.493-.886H180.2Z" fill="#fff"/>
      <rect id="長方形_27" data-name="長方形 27" width="9.239" height="51.258" transform="translate(208.5 30.192)" fill="#fff"/>
      <path id="パス_318" data-name="パス 318" d="M227.408,81.45V30.192h21.516v6.581H236.773V51.518h9.556v6.518h-9.556V74.995H249.05V81.45Z" fill="#fff"/>
      <path id="パス_319" data-name="パス 319" d="M270.515,82.146a15.139,15.139,0,0,1-7.72-1.8,11.348,11.348,0,0,1-4.683-5.284,22.681,22.681,0,0,1-1.772-8.542l8.037-1.583a24.8,24.8,0,0,0,.727,5.253A7.6,7.6,0,0,0,266.94,73.7a4.4,4.4,0,0,0,3.259,1.234,3.655,3.655,0,0,0,3.227-1.361,5.883,5.883,0,0,0,.949-3.448,9.327,9.327,0,0,0-1.519-5.506,23.75,23.75,0,0,0-4.049-4.3l-6.455-5.695a19.379,19.379,0,0,1-4.335-5.221,14.382,14.382,0,0,1-1.614-7.119q0-6.075,3.544-9.366t9.682-3.29a14.377,14.377,0,0,1,6.012,1.107,9.57,9.57,0,0,1,3.828,3.069,13.87,13.87,0,0,1,2.12,4.461,26.386,26.386,0,0,1,.886,5.284L274.5,44.937a27.309,27.309,0,0,0-.538-4.3,6,6,0,0,0-1.456-2.974,4.088,4.088,0,0,0-3.069-1.076,3.88,3.88,0,0,0-3.2,1.361,5.188,5.188,0,0,0-1.108,3.386,7.765,7.765,0,0,0,1.076,4.271,16.686,16.686,0,0,0,3.1,3.449l6.391,5.632a26.508,26.508,0,0,1,5.411,6.233,15.918,15.918,0,0,1,2.246,8.638,12.985,12.985,0,0,1-1.614,6.518,11.551,11.551,0,0,1-4.493,4.461,13.558,13.558,0,0,1-6.739,1.614" fill="#fff"/>
    </g>
  </g>
</svg>

<svg width="375" height="108" viewBox="0 0 375 108" fill="none" xmlns="http://www.w3.org/2000/svg">
<path d="M375 0H0V108H375V0Z" fill="#8B2F5B"/>
<path d="M103.04 81.45V30.19H112.41V74.99H124.81V81.44H103.04V81.45Z" fill="white"/>
<path d="M131.99 81.45L142.24 30.19H152.24L162.49 81.45H153.82L151.8 69.62H142.88L140.79 81.45H131.99ZM143.82 63.67H150.78L147.3 42.15L143.82 63.67Z" fill="white"/>
<path d="M170.83 81.45V30.19H182.92C187.1 30.19 190.36 30.76 192.7 31.9C195.04 33.04 196.71 34.79 197.7 37.15C198.69 39.51 199.19 42.51 199.19 46.14V64.87C199.19 68.58 198.69 71.67 197.7 74.14C196.71 76.61 195.06 78.44 192.76 79.65C190.46 80.85 187.31 81.45 183.3 81.45H170.83ZM180.2 74.93H183.05C185.2 74.93 186.74 74.55 187.67 73.79C188.6 73.03 189.17 71.92 189.38 70.47C189.59 69.01 189.7 67.23 189.7 65.12V45.5C189.7 43.43 189.55 41.77 189.26 40.5C188.96 39.23 188.35 38.31 187.43 37.72C186.5 37.13 185 36.83 182.94 36.83H180.22V74.93H180.2Z" fill="white"/>
<path d="M208.5 81.45V30.19H217.74V81.45H208.5Z" fill="white"/>
<path d="M227.41 81.45V30.19H248.93V36.77H236.78V51.51H246.34V58.03H236.78V74.99H249.06V81.44H227.42L227.41 81.45Z" fill="white"/>
<path d="M270.51 82.15C267.43 82.15 264.86 81.55 262.79 80.35C260.72 79.15 259.16 77.39 258.11 75.07C257.06 72.75 256.46 69.9 256.34 66.53L264.38 64.95C264.46 66.93 264.71 68.68 265.11 70.2C265.51 71.72 266.12 72.89 266.95 73.71C267.77 74.53 268.86 74.94 270.21 74.94C271.73 74.94 272.8 74.49 273.44 73.58C274.07 72.67 274.39 71.52 274.39 70.13C274.39 67.89 273.88 66.06 272.87 64.62C271.86 63.19 270.51 61.75 268.82 60.32L262.37 54.62C260.56 53.06 259.11 51.32 258.04 49.4C256.96 47.48 256.43 45.11 256.43 42.28C256.43 38.23 257.61 35.11 259.97 32.91C262.33 30.72 265.56 29.62 269.65 29.62C272.05 29.62 274.06 29.99 275.66 30.73C277.26 31.47 278.54 32.49 279.49 33.8C280.44 35.11 281.15 36.6 281.61 38.26C282.07 39.93 282.37 41.69 282.5 43.54L274.53 44.93C274.45 43.33 274.27 41.89 273.99 40.63C273.72 39.36 273.23 38.37 272.53 37.66C271.83 36.94 270.81 36.58 269.46 36.58C268.11 36.58 267 37.03 266.26 37.94C265.52 38.85 265.15 39.98 265.15 41.33C265.15 43.06 265.51 44.48 266.23 45.6C266.95 46.72 267.98 47.87 269.33 49.05L275.72 54.68C277.83 56.45 279.63 58.53 281.13 60.91C282.63 63.29 283.38 66.17 283.38 69.55C283.38 72 282.84 74.17 281.77 76.07C280.7 77.97 279.2 79.46 277.28 80.53C275.36 81.61 273.11 82.14 270.54 82.14L270.51 82.15Z" fill="white"/>
</svg>
